X:142
T:The Burning of the Lime
B:Terry "Cuz" Teahan "Sliabh Luachra on Parade" 1980
Z:Patrick Cavanagh
M:4/4
L:1/8
R:Hornpipe
K:D
E2 | D2FA D2FA | dfed B2dB | AFAB AFDE | FEED EGFE | 
D2FA D2FA | dfed B2dB | AFAB AFDE | F2D2 D2 :| 
B2 | Addc d2df | afbf afed | efed BAFA | efed BAFE | 
FAdc d2df | afbf afed | efed B2dB | AFEF D2 :|| 

